static/assets/images/exchanges/bitrue.svg

<svg width="225" height="256" viewBox="0 0 225 256" fill="none" xmlns="http://www.w3.org/2000/svg">
<path d="M187.59 171.296V43.6113L224.904 64.8659V192.708L156.417 231.754L119.103 210.499L187.59 171.296ZM0.864258 114.303L38.1779 93.048V170.982L150.276 234.745L112.963 256L0.864258 192.236V114.303ZM112.963 0L181.45 38.8881V81.5547L112.963 42.6666L0.864258 106.588V64.0787L112.963 0ZM71.0832 75.8868L96.4313 61.5597V115.09C99.1078 113.201 105.091 108.477 114.38 108.477C126.345 108.477 136.579 112.571 145.081 120.915C153.583 129.26 157.676 139.336 157.676 151.144C157.676 162.952 153.425 173.028 145.081 181.373C136.579 189.717 126.503 193.968 114.38 193.968C102.257 193.968 92.0229 189.717 83.6785 181.373C75.1767 173.028 71.0832 162.952 71.0832 151.144V75.8868ZM101.627 163.582C105.091 167.046 109.342 168.777 114.38 168.777C119.26 168.777 123.511 167.046 126.975 163.582C130.439 160.276 132.328 155.71 132.328 150.986C132.328 146.106 130.596 142.012 126.975 138.549C123.669 135.242 119.103 133.353 114.38 133.353C109.499 133.353 105.248 135.085 101.627 138.549C98.1631 141.697 96.2739 146.263 96.2739 150.986C96.4313 155.867 98.1631 160.118 101.627 163.582Z" fill="#F7D356"/>
</svg>

<svg xmlns="http://www.w3.org/2000/svg" fill="none" viewBox="0 0 225 256"><path fill="#F7D356" d="M187.59 171.296V43.611l37.314 21.255v127.842l-68.487 39.046-37.314-21.255zM.864 114.303l37.314-21.255v77.934l112.098 63.763L112.963 256 .864 192.236zM112.963 0l68.487 38.888v42.667l-68.487-38.888L.864 106.588v-42.51zm-41.88 75.887L96.431 61.56v53.53c2.677-1.889 8.66-6.613 17.949-6.613 11.965 0 22.199 4.094 30.701 12.438s12.595 18.421 12.595 30.229-4.251 21.884-12.595 30.229c-8.502 8.344-18.578 12.595-30.701 12.595s-22.357-4.251-30.701-12.595c-8.502-8.345-12.596-18.421-12.596-30.229zm30.544 87.695q5.196 5.195 12.753 5.195c4.88 0 9.131-1.731 12.595-5.195 3.464-3.306 5.353-7.872 5.353-12.596 0-4.88-1.732-8.974-5.353-12.437-3.306-3.307-7.872-5.196-12.595-5.196q-7.322 0-12.753 5.196c-3.464 3.148-5.353 7.714-5.353 12.437.157 4.881 1.89 9.132 5.353 12.596"/></svg>
